!!!!SEGMENT: pl-wtm--1351-fp-4576--001-002_stojowski-zygmunt--vier-stucke-quatre-morceaux-op-26-2-in-tempo-di-minuetto.krn
!!!cenid: 19xx:155
!!!COM: Stojowski, Zygmunt
!!!COM-rismID: pe41019736
!!!CDT: 1870-1946
!!!CNT: Polish
!!!GTL: Vier Stücke/Quatre morceaux Op. 26
!!!OTL: 2. In tempo di Minuetto
!!!OMV: 002
!!!PDT:
!!!AGN:
!!!YEC: Copyright 2022 Narodowy Instytut Fryderyka Chopina (https://polishscores.org)
!!!YEM: License CC-BY-4.0 (https://creativecommons.org/licenses/by/4.0)
!!!SMS-siglum: PL-Wtm
!!!SMS-shelfmark: 1351 fp 4576
!!!SMS-variant:
!!!SMS-altvar:
!!!SMS-shelfwork: 001-002 G
!!!NIFC-rismSourceID: 1001214689
!!!NIFC-rismChildID: 1001214689
!!!NIFC-islandoraID: pl-wtm:83036
!!!URL-pdf-islandora: https://repozytorium.nifc.pl/islandora/object/pl-wtm%3A83036/datastream/PDF/view
!!!URL-scan: https://polish.musicsources.pl/pl/lokalizacje/galeria/druki-muzyczne/18547/6 @EN{Scan on Polish Music Sources Website} @PL{Skany w portalu Dziedzictwo Muzyki Polskiej w otwartym dostępie}
!!!IIIF:
!!!ONB-nifc:
!!!AIN: 1 piano
!!!key: F
**kern	**fing	**kern	**fing	**dynam
*part1	*	*part1	*	*part1
*staff2	*	*staff1	*	*staff1/2
*group1	*	*group1	*	*
*ICklav	*	*ICklav	*	*
*Ipiano	*	*Ipiano	*	*
*I"Pianoforte	*	*I"Pianoforte	*	*
*I'	*	*I'	*	*
*clefF4	*	*clefG2	*	*
*k[b-]	*	*k[b-]	*	*
*F:	*	*F:	*	*
*M3/4	*	*M3/4	*	*
=1	=1	=1	=1	=1
!!LO:TX:a:B:t=Moderato con anima.
!	!	!	!	!LO:DY:t=%s espressivo
N(<8D/L	.	2.r	.	p
8C/J	.	.	.	.
[2D/	.	.	.	.
=2	=2	=2	=2	=2
!	!	!	!	!LO:DY:t=poco a poco rinforzando
8D/L]	.	2.r	.	rfz
8C/J	.	.	.	.
4.D/	.	.	.	.
.	.	.	.	.
8C/	.	.	.	.
=3	=3	=3	=3	=3
8D/L	.	2.r	.	.
8C/J	.	.	.	.
4.D/	.	.	.	.
8C/	.	.	.	.
=4	=4	=4	=4	=4
8D/L	.	2.r	.	.
8C/	.	.	.	.
8D/	.	.	.	.
8F/	.	.	.	.
8E/	.	.	.	.
8F/J	.	.	.	.
!!LO:LB:g=original
=5	=5	=5	=5	=5
!LO:TX:t=P:problem:mixed beam	!	!	!	!
8A/L	.	2.ryy	.	.
8G/	.	.	.	.
8A/	.	.	.	.
8c>\	.	.	.	.
8B->\	.	.	.	.
8c>\J	.	.	.	.
=6	=6	=6	=6	=6
2.r	.	8d/L	.	.
.	.	8c/	.	.
.	.	8d/	.	.
.	.	8f/	.	.
.	.	8e/	.	.
.	.	8f/J	.	.
=7	=7	=7	=7	=7
2.r	.	8a/L	.	.
.	.	8g/	.	>
.	.	8b-/	.	.
.	.	8a/	.	.
.	.	8g/	.	.
.	.	8f/J	.	]
=8	=8	=8	=8	=8
!!LO:TX:a:i:t=poco slentado
2.r	.	8e/L	.	.
.	.	8d/	.	.
.	.	8f/	.	.
.	.	8e/	.	.
.	.	8d/	.	.
.	.	8c/JN)	.	.
!!LO:LB:g=original
=9	=9	=9	=9	=9
*	*	*^	*	*
!!LO:TX:a:i:t=a tempo
(4GG/	.	4b-~::/	(8d::\L	.	p
.	.	.	8c\J	.	.
4B-\)	.	4b-'/	4d'\)	.	.
4C/	.	4b-'/	4e'\	.	.
=10	=10	=10	=10	=10	=10
(4FF/	.	(4.b-/	(8d\L	.	.
.	.	.	8c\J	.	.
4F\)	.	.	4d\	.	.
.	.	8a/L	.	.	.
4AA/	.	8g/	4c\)	.	.
.	.	8f/J)	.	.	.
=11	=11	=11	=11	=11	=11
(4GG/	.	4dd~/	(8e\L	.	.
.	.	.	8f\J	.	.
4B-\)	.	4dd'/	4d'\)	.	.
4BB-/	.	4dd'/	4e'\	.	.
=12	=12	=12	=12	=12	=12
(4AA/	.	(4.dd/	(8f\L	.	.
.	.	.	8e\J	.	.
4c\)	.	.	4f\	.	.
.	.	8cc/L	.	.	.
[4D\	.	8b-/	4f#X\)	.	.
.	.	8a/J)	.	.	.
!!LO:LB:g=original
=13	=13	=13	=13	=13	=13
(4D] 4GG/	.	(8g/L	8g\	.	.
.	.	8a/	8rc	.	.
4B-\)	.	8b-/	4d\	.	.
.	.	8g/	.	.	.
!	!	!	!	!	!LO:HP:a:t=poco cresc.
[>4AA/	.	8fn/	4c#X\	.	<
.	.	8e/J)	.	.	.
=14	=14	=14	=14	=14	=14
(4AA] 4DD/	.	(8f/L	2cn\	.	.
.	.	8g/	.	.	.
4F\)	.	8a/	.	.	.
.	.	8f/	.	.	.
4GG/	.	8e/	4Bn\	.	.
.	.	8d/J)	.	.	.
=15	=15	=15	=15	=15	=15
4C 4CC/	.	(8e/L	4B-X\	1 3	.
.	.	8f/	.	.	.
4BB-/	.	8g/	4d\	1 3	.
.	.	8a/	.	.	<
4AA/	.	8b-/	4f\	1 3	.
.	.	8bn/J	.	.	.
*	*	*v	*v	*	*
=16	=16	=16	=16	=16
4GG/	.	8ccL 8b-X 8e\	1 2 3	.
.	.	8dd\	.	.
4FF/	.	8ee 8a 8e'\)	.	.
.	.	8ff 8f'\	.	.
.	.	.	.	[
4EE/	.	8gg 8dd 8g'\	.	.
.	.	8aaJ 8a'\	.	.
!!LO:LB:g=original
=17	=17	=17	=17	=17
!	!	!	!	!LO:DY:rj
(4GG 4GGG/	.	(<8bb-L 8dd 8b-\	.	mf
.	.	8cc\J	.	.
4c 4B- 4C\)	.	4bb- 4dd 4b-\)	.	.
4CC/	.	4bb- 4ee 4b-\	.	.
=18	=18	=18	=18	=18
*	*	*^	*	*
(4FF 4FFF/	.	(4.bb-/	(8ddL 8b-\	.	.
.	.	.	8cc\J	.	.
4F\)	.	.	4dd\)	.	.
.	.	8aaL 8a/	.	.	.
4AA/	.	8gg 8cc 8g/	4ryy	.	.
.	.	8ffJ 8f/)	.	.	.
=19	=19	=19	=19	=19	=19
*	*	*	*	*below	*
!	!	!LO:TX:t=P:problem:łuczek pod oznaczeniem palcowania	!	!	!
(4GG/	.	4ddd 4dd/	(8ee\L	11	.
.	.	.	8ff\J	.	.
4B- 4C\)	.	4ddd 4dd\)	2ryy	.	.
4BB-/	.	4ddd 4ee 4dd\	.	.	.
=20	=20	=20	=20	=20	=20
(4AA/	.	(4.ddd/	(8ffL 8dd\	.	.
.	.	.	8ee\J	.	.
4c 4F\)	.	.	4ff\)	.	.
.	.	8cccL 8cc/	.	.	.
[4D\	.	8bb- 8b-/	4ff#X\	.	.
.	.	8aaJ 8a/)	.	.	.
!!LO:PB:g=original
=21	=21	=21	=21	=21	=21
4B-: 4D:] 4GG:\	.	4gg 4dd 4b-/	(8g\L	.	.
.	.	.	8a\	.	.
4r	.	4rff	8b-\	.	.
.	.	.	8g\	.	.
[4A 4AA\	.	(4cc#X/	8fn\	.	.
.	.	.	8e\J)	.	.
=22	=22	=22	=22	=22	=22
!	!	!	!	!	!LO:HP:a
4A] 4D\	.	4dd/)	(8f\L	.	>
.	.	.	8g\	.	.
4r	.	4r	8a\	.	.
.	.	.	8f\	.	.
4G 4GG/	.	4bn 4g/	8e\	.	]
.	.	.	8d\J)	.	.
=23	=23	=23	=23	=23	=23
!	!	!LO:TX:t=P:problem:mixed beam	!	!	!LO:DY:rj
4A 4C\	.	(8c</L	2ryy	.	p
.	.	8d\	.	.	.
4r	.	8e\	.	.	.
.	.	8f\J	.	.	.
(4Bn [4C^\	.	8g/L	(4d\	.	.
.	.	8a/J	.	.	.
=24	=24	=24	=24	=24	=24
4c 4A 4C\])	.	8f/L	4f\)	.	.
!	!	!	!	!	!LO:HP:t=poco a poco cresc.
.	.	8g/	.	.	<
4r	.	8a/	4r	.	.
.	.	8b-X/	.	.	.
[4d 4F#X [4C^\	.	8cc/	[4a\	.	.
.	.	8dd/J	.	.	.
=25	=25	=25	=25	=25	=25
4d] 4G 4C\]	.	8b-/L	4a\]	.	.
.	.	8cc/	.	.	.
(4B-\	.	8dd/	4g\	.	.
.	.	8ee/	.	.	.
4Bn\	.	8ffn/	8dd\L	.	.
.	.	8gg/J)	8g\J	.	.
*	*	*v	*v	*	*
!!LO:LB:g=original
=26	=26	=26	=26	=26
4c\	.	(8eeL 8cc\	.	.
.	.	8ff 8f\)	.	.
4A\	.	8gg 8g\	.	.
.	.	8aa 8a\	.	.
4e-X [>4F\	.	8bb-X 8b-X\	.	.
.	.	8cccJ 8cc\	.	.
=27	=27	=27	=27	=27
4d 4F] 4BB-\)	.	8dddL 8dd\	.	.
.	.	8eeenJ 8een\	.	.
4r	.	4fff 4ff'\	.	.
4AA'/	.	4d 4c'/	.	>
=28	=28	=28	=28	=28
*^	*	*^	*	*
(8B-/L	4GG\	.	(8g/L	[4d\	.	.
8A/	.	.	8a/	.	.	.
8G/J)	4rGG	.	8b-/J)	8d\]	.	.
8rA	.	.	8r	8ryy	.	.
4C'/	4ryy	.	4e 4B-'/	4ryy	.	p
*	*	*	*v	*v	*	*
=29	=29	=29	=29	=29	=29
!	!	!	!LO:TX:b:i:t=espress.	!	!
N(8D/L	[2.FF\	.	[2.f [2.A/	.	.
8C/J	.	.	.	.	.
4.D/	.	.	.	.	.
8C/	.	.	.	.	.
=30	=30	=30	=30	=30	=30
8D/L	2.FF\_	.	2.f_ 2.A/_	.	.
8C/J	.	.	.	.	.
4.D/	.	.	.	.	.
8C/	.	.	.	.	.
!!LO:LB:g=original
=31	=31	=31	=31	=31	=31
8D/L	4FF\]	.	4f] 4A/]	.	.
!	!	!	!	!	!LO:HP:t=poco cresc.
8C/	.	.	.	.	<
8D/	4r	.	4r	.	.
8F/	.	.	.	.	.
8E/	4rEE	.	4r	.	.
8F/J	.	.	.	.	.
*v	*v	*	*	*	*
=32	=32	=32	=32	=32
!LO:TX:t=P:problem:mixed beam	!	!	!	!
8A/L	.	2.ryy	.	.
8G/	.	.	.	.
8A/	.	.	.	.
8c>\	.	.	.	.
8B->\	.	.	.	.
8c>\J	.	.	.	.
=33	=33	=33	=33	=33
2.r	.	8d/L	.	.
.	.	8c/	.	.
.	.	8d/	.	.
.	.	8f/	.	.
.	.	8e/	.	.
.	.	8f/J	.	.
=34	=34	=34	=34	=34
2.r	.	8a/L	.	.
!	!	!LO:TX:b:i:t=poco rit.	!	!
.	.	8g/	.	>
.	.	8a/	.	.
.	.	8cc/	.	.
.	.	8b-/	.	.
.	.	8cc/J	.	]
=35	=35	=35	=35	=35
2.r	.	2.ff~~~\	.	.
=36	=36	=36	=36	=36
2.r	.	2.f~>/N)	.	.
!!LO:LB:g=original
=37	=37	=37	=37	=37
*^	*	*	*	*
!!LO:TX:a:i:t=a tempo
!	!	!	!	!	!LO:DY:b=2:t=%s espressivo
4g-X~/	2.c 2.A-X\	.	8r	.	p
*	*	*	*	*above	*
.	.	.	(8a-X\L	2	.
4g-~/	.	.	8b-\	.	.
.	.	.	8cc 8a-\	.	.
4g-~/	.	.	8dd-X 8b-\	3	.
.	.	.	8ee-XJ 8cc\)	.	.
=38	=38	=38	=38	=38	=38
(4.g-X::/	8D-X::\	.	8r	.	.
.	8ryy	.	(8ee-XL 8dd-X\	2 3	.
.	2ryy	.	8aa-X 8cc\	1 5	.
8f/L	.	.	8bb- 8dd-\	1 4	.
8e-X/	.	.	8ccc 8ee-\	2 5	.
[>8d-X/J)	.	.	8ddd-XJ 8ff\)	1 4	.
=39	=39	=39	=39	=39	=39
!	!	!	!	!	!LO:HP:t=poco a poco cresc.
4an~::/	4c#X:] 4F#X::\	.	8r	.	<
.	.	.	(8bn\L	.	.
4a~/	4r	.	8cc#X\	.	.
.	.	.	8dd#X 8b\	.	.
4a~/	4Bn\	.	8eenX 8cc#\	.	.
.	.	.	8ff#XJ 8dd#\)	.	.
=40	=40	=40	=40	=40	=40
(4.a/	4E\	.	8r	.	.
.	.	.	(8ff#XL 8ee\	1 3	.
.	4rD	.	8bbn 8dd#X\	2 5	.
8g#X/L	.	.	8ccc#X 8ee\	1 3	.
8f#X/	4rD	.	8ddd#X 8ff#X\	1 4	.
8e/J)	.	.	8eeeJ 8gg#X\)	2 5	.
*v	*v	*	*	*	*
!!LO:LB:g=original
=41	=41	=41	=41	=41
(8DD/L	.	4fffn 4aa 4ffn~\	.	.
8E/	.	.	.	.
*	*below	*	*	*
8Fn 8D/	2 4	4fff 4aa 4ff~\	.	.
8Gn 8E/	1 3	.	.	.
8A 8F/	2 4	4fff 4aa 4ff~\	.	.
8BnJ 8G/)	1 3	.	.	.
=42	=42	=42	=42	=42
*^	*^	*	*	*
(8c/L	8C\	1	.	(4.fff 4.gg 4.ff\	.	.
8d/	8r	2	.	.	.	.
8e/	4B-X\	1	4	.	.	.
8f/	.	2	.	8eeeL 8ee\	.	.
8g/	4A\	1	5	8ddd 8dd\	.	.
8a/J)	.	2	.	8cccJ 8cc\)	.	.
*	*	*v	*v	*	*	*
=43	=43	=43	=43	=43	=43
4b-/	4G\	.	8r	.	.
.	.	.	(8cc\L	1	.
4b-/	4r	.	8dd\	.	.
.	.	.	8ee 8cc\	1 3	.
4b-/	4c\	.	8ff 8dd\	2 4	.
.	.	.	8ggJ 8ee\	3 5	.
=44	=44	=44	=44	=44	=44
(4.b-/	4F\	.	8aaL 8ff\	2 4	.
.	.	.	8bb- 8gg\	1 3	.
.	4r	.	8ccc 8aa\	2 4	.
8a/L	.	.	8ddd 8bb-\	3 5	.
8g/	4r	.	8eee 8ccc\	2 4	.
8f/J)	.	.	8fffJ 8aa\)	1 5	.
*v	*v	*	*	*	*
=45	=45	=45	=45	=45
4.g 4.G~\	.	8r	.	.
!	!	!	!	!LO:HP:t=sempre più cresc.
.	.	(8eeL 8dd\	1 3	<
.	.	8aa 8cc#X\	2 5	.
8fL 8F\	.	8bbn 8dd\	1 3	.
8e 8E\	.	8ccc#X 8gg\	2 4	.
8dJ 8D\	.	8dddJ 8ff\)	1 5	.
!!LO:LB:g=original
=46	=46	=46	=46	=46
4.e-X 4.E-X~\	.	8r	.	.
.	.	(8ccnL 8b-X\	2 3	.
.	.	8ff 8a\	1 5	.
8dL 8D\	.	8gg 8b-\	1 4	.
8c 8C\	.	8aa 8ee-X\	2 5	.
8B-J 8BB-\	.	8bb-J 8dd\)	1 4	.
=47	=47	=47	=47	=47
(8BBB-/L	.	(8aaL 8ee-X\	2 4	.
8FF/	.	8bb- 8dd\	1 5	.
8BB-/)	.	8aa 8ee-\	.	.
(8BB-/	.	8bb- 8dd\	.	.
8F/	.	8aa 8ee-\	.	.
8B-/J)	.	8bb-J 8dd\)	.	.
*clefG2	*	*	*	*
=48	=48	=48	=48	=48
(8B-/L	.	(8aaL 8ee-X\	.	.
8f/	.	8bb- 8dd\	.	.
8b-/)	.	8ccc#X 8aa\	1 3	.
(8b-/	.	8ddd 8bb-\	2 4	.
8ff/	.	8eeen 8ccc#\	1 3	.
8bb-/J)	.	8fffJ 8ddd\)	2 4	.
!!LO:PB:g=original
*clefF4	*	*	*	*
=49	=49	=49	=49	=49
(8EEnX\L	.	(8ggg#XL 8fff 8gg#X\	1 4 5	f
8BBn\	.	8eee\	3	.
8E\	.	8fff 8ddd\	2 4	.
8G#X\	.	8eee\	.	.
8Bn\	.	8ddd\	.	.
8e\J	.	8ccc#X\J	1	.
=50	=50	=50	=50	=50
8bn 8g#X\)	.	8dddL 8bbn\	2 4	.
8r	.	8aa\	1	.
4r	.	8bb 8gg#X\	2 4	.
.	.	8ff\	.	.
4r	.	8gg# 8ee\	.	.
.	.	8dd\J)	.	.
!!LO:PB:g=original
=51	=51	=51	=51	=51
(<8AAA/L	.	(8eeL 8cc#X\	2 4	.
8EE/	.	8b-X\	1	.
8AA/	.	8cc# 8a\	2 4	.
8C#X/	.	8b-\	.	.
8E/	.	8a\	.	.
8A/J	.	8g\J	.	.
=52	=52	=52	=52	=52
8e 8c#X\)	.	8b-L 8g/	2 4	.
8r	.	8f/	.	.
4r	.	8g 8e/	.	.
.	.	8d/	.	.
4r	.	8e 8c#X/	.	.
.	.	8B-/J)	.	.
*	*	*clefF4	*	*
=53	=53	=53	=53	=53
*	*	*^	*	*
2.r	.	2c#X/	(8A\L	.	.
.	.	.	8B-\	.	.
.	.	.	8A\	.	.
.	.	.	8G\	.	.
.	.	4A/	8F\	.	.
.	.	.	8E\J)	.	.
=54	=54	=54	=54	=54	=54
2.r	.	2c#X/	(8A\L	.	.
.	.	.	8B-\	.	.
.	.	.	8A\	.	.
.	.	.	8G\	.	.
.	.	4A/	8F\	.	.
.	.	.	8E\J)	.	.
!!LO:LB:g=original
=55	=55	=55	=55	=55	=55
2.r	.	2c#X/	(8A\L	.	.
.	.	.	8B-\	.	.
.	.	.	8A\	.	.
.	.	.	8G\	.	.
.	.	4A/	8F\	.	.
.	.	.	8E\J)	.	.
=56	=56	=56	=56	=56	=56
2.r	.	2.A/	(8F\L	.	.
.	.	.	8E\	.	.
.	.	.	8F\	.	.
.	.	.	8E\	.	.
.	.	.	8F\	.	.
.	.	.	8E\J)	.	.
=57	=57	=57	=57	=57	=57
!	!	!	!	!	!LO:HP:t=dim. molto
2.r	.	2.A/	(8F\L	.	>
.	.	.	8E\	.	.
.	.	.	8F\	.	.
.	.	.	8E\	.	.
.	.	.	8F\	.	.
.	.	.	8E\J)	.	.
=58	=58	=58	=58	=58	=58
2.r	.	2.A/	(8F\L	.	.
.	.	.	8E\	.	.
.	.	.	8F\	.	.
.	.	.	8E\	.	.
.	.	.	8F\	.	.
.	.	.	8E\J)	.	.
!!LO:LB:g=original
=59	=59	=59	=59	=59	=59
2.r	.	2A/	(12F\L	.	.
.	.	.	12E-X\	.	.
.	.	.	12F\J	.	.
.	.	.	12E-\L	.	.
.	.	.	12F\	.	.
.	.	.	12E-\J	.	.
.	.	[4A/	12F\L	.	<
.	.	.	12E-\	.	.
.	.	.	12F\J	.	.
=60	=60	=60	=60	=60	=60
*	*	*	*Xtuplet	*	*
2.r	.	4A/]	12E-X\L	.	.
.	.	.	12F\	.	.
.	.	.	12E-\J	.	.
.	.	2A/	12F\L	.	.
.	.	.	12E-\	.	.
.	.	.	12F\J	.	[
.	.	.	12E-\L	.	.
.	.	.	12F\	.	.
.	.	.	12E-\J	.	.
*	*	*v	*v	*	*
=61	=61	=61	=61	=61
2.r	.	12F#XL 12D^\	.	.
.	.	12C\	.	.
.	.	12D\J	.	.
.	.	12En\L	.	.
.	.	12D\	.	.
.	.	12E\J	.	.
.	.	12F#\L	.	.
.	.	12E\	.	.
.	.	12F#\J	.	.
=62	=62	=62	=62	=62
2.r	.	12G\L	.	.
.	.	12F#X\	.	.
.	.	12G\J	.	.
.	.	12A\L	.	.
.	.	12G\	.	.
.	.	12A\J	.	.
.	.	12B-\L	.	.
.	.	12A\	.	.
.	.	12B-\J	.	.
*	*	*clefG2	*	*
!!LO:LB:g=original
=63	=63	=63	=63	=63
2.r	.	12c/L	.	.
.	.	12B-/	.	.
.	.	12c/J	.	.
.	.	12d/L	.	.
.	.	12c/	.	.
!	!	!	!	!LO:HP:a
.	.	12d/J	.	>
.	.	12e/L	.	.
.	.	12d/	.	.
.	.	12e/J	.	]]
=64	=64	=64	=64	=64
!!LO:TX:a:i:t=poco calando
2.r	.	12f#X/L	.	.
.	.	12e/	.	.
.	.	12f#/J	.	.
.	.	12g/L	.	.
.	.	12f#/	.	.
.	.	12g/J	.	.
.	.	12a/L	.	.
.	.	12g/	.	.
.	.	12a/J	.	.
=65	=65	=65	=65	=65
*^	*	*	*	*
!!LO:TX:a:i:t=a tempo
4B-::/	4GG::\	.	8b-'/L)	.	p
.	.	.	8c'/	.	.
4B-/	4rGG	.	8c#X'/	.	.
.	.	.	8d'/J	.	.
4B-/	4C\	.	(4ett/	.	.
.	.	.	16qqd/LL	.	.
.	.	.	16qqe/JJ	.	.
=66	=66	=66	=66	=66	=66
*	*	*	*tuplet	*	*
(4.B-/	4FF\	.	12f/L	.	.
.	.	.	12e/	.	.
.	.	.	12f/J	.	.
.	2ryy	.	12g/L	.	.
.	.	.	12f/	.	.
8A/L	.	.	.	.	.
.	.	.	12g/J	.	.
8G/	.	.	4a/)	.	.
[>8F/J)	.	.	.	.	.
!!LO:LB:g=original
=67	=67	=67	=67	=67	=67
4d/	4F] 4BB-\	.	8r	.	.
.	.	.	8e'/L	.	.
!	!	!	!	!	!LO:HP:t=poco cresc.
4d/	4r	.	8f'/	.	<
.	.	.	8g'/J	.	.
4d/	4E\	.	(4g#Xtt/	.	.
.	.	.	16qqf#X/LL	.	.
.	.	.	16qqg#/JJ	.	.
=68	=68	=68	=68	=68	=68
(4.d/	4AA\	.	12a/L	.	.
.	.	.	12g#X/	.	.
.	.	.	12a/J	.	.
.	4rBB	.	12b-/L	.	.
.	.	.	12a/	.	.
8c/L	.	.	.	.	.
.	.	.	12b-/J	.	.
!	!	!	!LO:TUP:a	!	!
8B-/	4rBB	.	12cc\L	.	.
.	.	.	12b-\	.	.
8A/J	.	.	.	.	.
.	.	.	12cc\J	.	.
=69	=69	=69	=69	=69	=69
8G/L	4BB-\	.	4dd\	.	.
8A/	.	.	.	.	.
8B-/	4rGG	.	4d/	.	.
8G/	.	.	.	.	.
8F/	4AA\	.	4c#X/tt	.	.
8E/J	.	.	.	.	.
.	.	.	16qqBn/LL	.	.
.	.	.	16qqc#/JJ	.	.
=70	=70	=70	=70	=70	=70
*	*	*	*^	*	*
!LO:TX:t=P:problem:mixed beam	!	!	!	!	!	!LO:HP:a
8F/L	4D\	.	4d/	4ryy	.	>
8G/	.	.	.	.	.	.
8A>\	4rGG	.	4A/	4ryy	.	]
8F/	.	.	.	.	.	.
8E/	4GG\	.	4g/	4Bn\tt	.	.
8D/J	.	.	.	.	.	.
*v	*v	*	*	*	*	*
.	.	.	16qqA\LL	.	.
.	.	.	16qqB\JJ	.	.
!!LO:LB:g=original
=71	=71	=71	=71	=71	=71
4C/)	.	8e/L	4B-X\	.	.
.	.	8f/	.	.	.
(12BB-/L	2	8g/	4d\	.	.
12C/	.	.	.	.	.
.	.	8a/	.	.	.
12BB-/J	.	.	.	.	.
12AA/L	.	8b-/	4f\	.	<
12BB-/	.	.	.	.	.
.	.	8bn/J	.	.	.
12AA/J	1	.	.	.	.
*	*	*v	*v	*	*
=72	=72	=72	=72	=72
12GG/L	2	8ccL 8b-X 8e\	.	.
12AA/	.	.	.	.
.	.	8dd\	.	.
12GG/J	.	.	.	.
12FF/L	3	8ee 8a 8e\)	.	.
12GG/	.	.	.	.
.	.	8ff 8f\	.	.
12FF/J	.	.	.	.
12EE/L	4	8gg 8dd 8g\	.	.
12FF/	.	.	.	.
.	.	8aaJ 8a\	.	.
12FF#X/J)	.	.	.	[
=73	=73	=73	=73	=73
4GG 4GGG/	.	(<8bb-L 8dd 8b-\	.	f
.	.	8cc\J	1	.
4c 4B- 4C\	.	4bb- 4dd 4b-\)	.	.
4C 4CC/	.	4bb- 4ee 4b-\	.	.
=74	=74	=74	=74	=74
*	*	*^	*	*
4FF 4FFF/	.	(4.bb-/	(8ddL 8b-\	.	.
.	.	.	8cc\J	.	.
4c 4A 4C\	.	.	4dd\)	.	.
.	.	8aaL 8a/	.	.	.
4AA 4AAA/	.	8gg 8g/	4cc\	.	.
.	.	8ffJ 8f/)	.	.	.
*	*	*v	*v	*	*
!!LO:PB:g=original
=75	=75	=75	=75	=75
*	*	*	*below	*
!	!	!LO:TX:t=P:problem:łuczek pod oznaczeniem palcowania	!	!
4GG 4GGG/	.	(<8dddL 8ee 8dd\	11	.
.	.	8ff\J	.	.
4c 4B- 4C\	.	4ddd 4dd\)	.	.
4BB- 4BBB-/	.	4ddd 4ee 4dd\	.	.
=76	=76	=76	=76	=76
*	*	*^	*	*
4AA 4AAA/	.	(4.ddd 4.dd/	(8ff\L	.	.
.	.	.	8ee\J	.	.
4f 4c 4F\	.	.	4ff\)	.	.
.	.	8cccL 8cc/	.	.	.
4D 4DD/	.	8bb- 8b-/	4ff#X\	.	.
.	.	8aaJ 8a/)	.	.	.
=77	=77	=77	=77	=77	=77
8GG 8GGG/	.	(8ggL 8dd 8b- 8g\	4ryy	.	.
8r	.	8aaJ 8a\	.	.	.
(<8dL 8B- 8G\	.	8bb- 8b-\)	4ryy	.	.
8g\J	.	8r	.	.	.
8c#X 8A\)	.	(8ffL 8a 8f/	4cc#X\	.	.
8r	.	8eeJ 8e/)	.	.	.
=78	=78	=78	=78	=78	=78
8D 8DD/	.	(8ffL 8dd 8a 8f\	4ryy	.	.
8r	.	8ggJ 8g\	.	.	.
(<8dL 8A 8F\	.	8aa 8a\)	4ryy	.	.
8f\J	.	8r	.	.	.
8Bn 8G\)	.	(8eeL 8g 8e/	4bn\	.	.
8r	.	8ddJ 8d/)	.	.	.
*	*	*v	*v	*	*
=79	=79	=79	=79	=79
8c 8A 8C\	.	8r	.	.
8r	.	8dd 8d/	.	.
(<8e>L 8c 8A\	.	4rb	.	.
8f>\J)	.	.	.	.
4d 4Bn\	.	8ggL 8g/	.	.
.	.	8aaJ 8a/	.	.
!!LO:LB:g=original
=80	=80	=80	=80	=80
4f> 4c 4A\	.	8r	.	.
.	.	8ggL 8g/	.	.
4C/	.	8aa 8a/	.	.
.	.	8bb-XJ 8b-X/	.	.
4cc> 4a> 4f#X> 4c>\	.	8raa	.	.
.	.	8ddd 8dd/	.	.
=81	=81	=81	=81	=81
4b-> 4g> 4d> 4B->\	.	8raa	.	.
.	.	8cccL 8cc/	.	.
4C/	.	8ddd 8dd/	.	.
.	.	8eee 8ee/	.	.
4bn> 4g> 4d> 4Bn>\	.	8fff 8ff/	.	<
.	.	8gggJ 8gg/	.	[[
=82	=82	=82	=82	=82
(<4ee> 4a> 4c>\	.	8r	.	.
.	.	8fffL 8ff/	.	.
4ee-X> 4f>\)	.	8ggg 8gg/	.	.
.	.	8aaa 8aa/	.	.
*	*	*8va	*	*
[4F\	.	8bbb- 8bb-/	.	.
.	.	8ccccJ 8ccc/	.	.
=83	=83	=83	=83	=83
4d 4F] 4BB-\	.	8ddddL 8ddd\	.	.
.	.	8eeeenJ 8eeen\	.	.
4r	.	8ffff 8fff\	.	.
*	*	*X8va	*	*
.	.	8r	.	.
4AA'/	.	4d 4c'/	.	.
=84	=84	=84	=84	=84
*^	*	*^	*	*
(8B-::/L	8GG::\	.	(8g/L	[4d\	.	.
8A/J	8rBB	.	8a/J	.	.	.
8G/)	4rBB	.	8b-/)	8d\]	.	.
8rA	.	.	8r	8ryy	.	.
4C'/	4ryy	.	4e 4B-'/	4ryy	.	.
*	*	*	*v	*v	*	*
!!LO:LB:g=original
=85	=85	=85	=85	=85	=85
N(8D/L	[2.FF\	.	[2.f [2.A/	.	f
8C/J	.	.	.	.	.
4.D/	.	.	.	.	.
8C/	.	.	.	.	.
=86	=86	=86	=86	=86	=86
8D/L	2.FF\_	.	2.f_ 2.A/_	.	.
8C/J	.	.	.	.	.
4.D/	.	.	.	.	.
8C/	.	.	.	.	.
=87	=87	=87	=87	=87	=87
8D/L	4FF\]	.	4f] 4A/]	.	.
8C/	.	.	.	.	.
8D/	4rEE	.	4r	.	.
8F/	.	.	.	.	.
8E/	4rEE	.	4r	.	.
8F/J	.	.	.	.	.
*v	*v	*	*	*	*
=88	=88	=88	=88	=88
!LO:TX:t=P:problem:mixed beam	!	!	!	!
8A/L	.	2.ryy	.	.
8G/	.	.	.	.
8A/	.	.	.	.
8c>\	.	.	.	.
8B->\	.	.	.	.
8c>\J	.	.	.	.
=89	=89	=89	=89	=89
2.r	.	8d/L	.	.
.	.	8c/	.	.
.	.	8d/	.	>
.	.	8f/	.	.
.	.	8e/	.	.
.	.	8f/J	.	.
!!LO:LB:g=original
=90	=90	=90	=90	=90
2.r	.	8a/L	.	.
.	.	8g/	.	.
.	.	8a/	.	]
.	.	8cc/	.	.
.	.	8b-/	.	.
.	.	8cc/JN)	.	.
=91	=91	=91	=91	=91
*^	*	*	*	*
!	!	!	!LO:TUP:a	!	!
2.a-X 2.F/	(>2c-X\	.	(12dd\L	.	p
.	.	.	12cc\	.	.
.	.	.	12dd\J	.	.
!	!	!	!LO:TUP:a	!	!
.	.	.	12ee-X\L	.	.
.	.	.	12dd\	.	.
.	.	.	12ee-\J	.	.
!	!	!	!LO:TUP:a	!	!
.	4B-\)	.	12ff\L	.	.
.	.	.	12ee-\	.	.
.	.	.	12ff\J	.	.
=92	=92	=92	=92	=92	=92
*	*	*	*Xtuplet	*	*
2.g 2.B-/	(2E-X\	.	12gg\L	.	<
.	.	.	12ff\	.	.
.	.	.	12gg\J	.	.
.	.	.	12aa-X\L	.	.
.	.	.	12gg\	.	.
.	.	.	12aa-\J	.	.
.	4D-X\)	.	12bb-\L	.	.
.	.	.	12aa-\	.	.
.	.	.	12bb-\J	.	.
*v	*v	*	*	*	*
=93	=93	=93	=93	=93
*	*	*8va	*	*
2.f: 2.An: 2.C:\	.	16ccc\LL	.	<
.	.	16ddd\	.	.
.	.	16eee\	.	.
.	.	16fff\JJ	.	.
.	.	16ggg\LL	.	.
.	.	16aaa\	.	.
.	.	16bbb-\	.	.
.	.	16cccc\JJ	.	.
.	.	16dddd\LL	.	.
.	.	16eeee\	.	.
.	.	16ffff\	.	.
.	.	16gggg\JJ	.	[[
!!LO:LB:g=original
=94	=94	=94	=94	=94
4r	.	4aaaa\)	.	.
*	*	*X8va	*	*
4r	.	4r	.	.
4B- 4C'\	.	4cc 4g 4e'/	.	p
=95	=95	=95	=95	=95
*ped	*	*	*	*
4A 4C 4FF/	.	4ff 4cc 4f\	.	.
4r	.	4r	.	.
4r	.	4r	.	.
*Xped	*	*	*	*
=96||	=96||	=96||	=96||	=96||
*k[]	*	*k[]	*	*
*	*	*^	*	*
!LO:TX:b:i:t=poco marcato	!	!	!	!	!
(4AA\	.	8rF<	4ryy	.	p
!	!	!LO:TX:t=P:problem:mixed beam	!	!	!
.	.	(8E</L	.	.	.
4BB\	.	8d\	2e/	.	.
.	.	8c\	.	.	.
4C\	.	8B</	.	.	.
.	.	[8A</J	.	.	.
*	*	*v	*v	*	*
=97	=97	=97	=97	=97
*^	*	*	*	*
!	!	!	!LO:TX:t=P:problem:mixed beam	!	!
4D\	4ryy	.	8A</L]	.	.
.	.	.	8G#X</	.	.
8C\L	4ryy	.	8A</	.	.
8D\J	.	.	8B</	.	.
!	!	!	!LO:TX:t=P:problem:klamra	!	!
4BB\)	4G/	.	8c#X\	.	.
.	.	.	8d\J)	.	.
*v	*v	*	*	*	*
=98	=98	=98	=98	=98
*	*	*^	*	*
(4Cn\	.	8rA<	4ryy	.	.
!	!	!LO:TX:t=P:problem:mixed beam	!	!	!
.	.	(8A</L	.	.	.
4D\	.	8f\	2a/	.	.
.	.	8e\	.	.	<
4E\	.	8d\	.	.	.
.	.	[8cn\J	.	.	.
!!LO:LB:g=original
=99	=99	=99	=99	=99	=99
4F\	.	8c/L]	4ryy	.	.
.	.	8B/	.	.	.
8E\L	.	8c/	4ryy	.	.
8F\J	.	8d/	.	.	.
4D\)	.	8e/	4g#X\	.	[
.	.	8f/J)	.	.	.
=100	=100	=100	=100	=100	=100
(4C/	.	4ryy	8r	.	.
.	.	.	&(<8e\L	.	.
[2c^\)	.	2ee/	8b\	.	.
.	.	.	8a\	.	.
.	.	.	8g#X\	.	.
.	.	.	8gn\J	.	.
=101	=101	=101	=101	=101	=101
(4c\]	.	(4a/	8f#X\L	.	.
.	.	.	8e\J	.	.
8B\L	.	4f# 4d#X/	2ryy	.	.
8A\J	.	.	.	.	.
4G\	.	[4b [4e/&)	.	.	.
=102	=102	=102	=102	=102	=102
4F#X\	.	8b/L]	2.e\]	.	.
.	.	8cc/	.	.	.
4G\	.	8a/	.	.	>
.	.	8g/J	.	.	.
!!LO:TX:a:i:t=poco slentando
[4A\	.	[4f#X/	.	.	.
*	*	*v	*v	*	*
=103	=103	=103	=103	=103
8A\L]	.	4f#] 4d#X/	.	.
8B\	.	.	.	]
8G\	.	4e 4B/)	.	.
8F#X\J	.	.	.	.
4E\)	.	4r	.	.
!!LO:PB:g=original
=104||	=104||	=104||	=104||	=104||
!!LO:TX:a:i:t=a tempo
(<4.E\	.	4fn 4A< 4Fn</	.	mf
.	.	4g 4B< 4G</	.	.
8D\	.	.	.	.
!	!	!	!	!LO:HP:a:t=poco a poco cresc.
4C\)	.	[4a [4f [>4A</	.	<
=105	=105	=105	=105	=105
4BB\	.	(>8a]L 8f] 8A</]	.	.
.	.	8g#X 8e 8G#X</)	.	.
4E\	.	8a 8f#X 8A</	.	.
.	.	8bJ 8g# 8B</	.	.
4AA\	.	4cc 4a 4c/	.	.
=106	=106	=106	=106	=106
(4.A 4.AA\	.	4b-X 4d 4B-X/	.	.
.	.	4cc 4e 4c/	.	.
8G 8GG/	.	.	.	.
4F 4FF/)	.	[4dd [>4b- [4d/	.	.
=107	=107	=107	=107	=107
4E 4EE/	.	(>8dd]L 8b-] 8d/]	.	.
.	.	8cc#X 8a 8c#X/)	.	.
4A 4AA\	.	8dd 8bn 8d/	.	.
.	.	8eeJ 8cc# 8e/	.	.
4D 4DD/	.	4ff 4dd 4f\	.	.
=108	=108	=108	=108	=108
4A 4E 4AA'\	.	4ee 4ccn 4a 4e'/	.	f
2F 2C 2FF~/	.	2ff 2cc 2a 2f~\	.	.
=109	=109	=109	=109	=109
4A 4E 4AA'\	.	(8eeL 8cc 8a 8e\	.	.
.	.	8ggJ 8g\)	.	.
2F 2C 2FF~/	.	2ff 2cc 2a 2f~\	.	.
!!LO:LB:g=original
=110	=110	=110	=110	=110
4A 4E 4AA\	.	(8eeL 8cc 8a 8e\	.	.
.	.	8ggJ 8g\)	.	.
4F 4C 4FF/	.	4ff 4cc 4a 4f\	.	.
4A 4E 4AA\	.	(8eeL 8cc 8a 8e\	.	.
.	.	8ggJ 8g\)	.	.
=111	=111	=111	=111	=111
4F 4C 4FF/	.	(8ffL 8cc 8a 8f/	.	.
.	.	8eeJ 8e/)	.	.
2B 2F#X 2BB~\	.	2dd#X 2b 2a 2d#X~/	.	.
=112	=112	=112	=112	=112
4G 4D 4GG'/	.	4ddn 4b-X 4g 4dn'/	.	.
2E-X 2BB-X 2EE-X~/	.	2ee-X 2b- 2g 2e-X~/	.	.
=113	=113	=113	=113	=113
4G 4D 4GG'/	.	(8ddL 8b-X 8g 8d/	.	.
.	.	8ffJ 8f/)	.	.
2E-X 2BB-X 2EE-X~/	.	2ee-X 2b- 2g 2e-X~/	.	.
=114	=114	=114	=114	=114
4G 4D 4GG/	.	(8ddL 8b-X 8g 8d/	.	.
.	.	8ffJ 8f/)	.	.
4E-X 4BB-X 4EE-X/	.	4ee-X 4b- 4g 4e-X/	.	.
4G 4D 4GG/	.	(8ddL 8b- 8g 8d/	.	.
.	.	8ffJ 8f/)	.	.
=115	=115	=115	=115	=115
4E-X 4BB-X 4EE-X/	.	8ee-XL 8b-X 8g 8e-X'/	.	.
.	.	8ddJ 8d'/	.	.
2A 2En 2AA~\	.	2cc#X 2a 2g 2c#X~/	.	.
!!LO:LB:g=original
=116	=116	=116	=116	=116
4F 4C 4FF'/	.	(8ccnL 8a-X 8f 8cn/	.	.
.	.	8een 8en/)	.	.
!	!	!	!	!LO:HP:t=dim. molto
4D 4DD'/	.	8dd 8f#X 8d'/	.	>
.	.	8cc 8c'/	.	.
4D 4GG'/	.	8bn 8fn 8Bn'/	.	.
.	.	8ddJ 8d'/	.	.
=117	=117	=117	=117	=117
4C 4CC'/	.	8ccL 8e 8c'/	.	.
.	.	8b-X 8B-X'/	.	.
4C 4FF'/	.	8a 8d#X 8A'/	.	.
.	.	8cc 8c'/	.	.
4BB 4BBB'/	.	8bn 8d# 8Bn'/	.	.
.	.	8aJ 8A'/	.	.
=118	=118	=118	=118	=118
4EE'^/	.	2.ee^\tt	.	p
!LO:TX:b:i:t=poco marcato	!	!	!	!
4G#X 4E'\	.	.	.	.
4d [4F^\	.	.	.	.
=119	=119	=119	=119	=119
*^	*	*	*	*
(8c/L	4F\]	.	2.ee\tt	.	.
8d/)	.	.	.	.	.
8B'/	4D\	.	.	.	.
8A'/J	.	.	.	.	.
4G#X'/	4E\	.	.	.	.
*v	*v	*	*	*	*
=120	=120	=120	=120	=120
4EE/	.	2.ee\tt	.	.
!	!	!LO:TX:b:i:t=poco a poco cresc.-:ext=ud:problem:text with extention lines	!	!
4G#X 4E'\	.	.	.	<
4d [4F^\	.	.	.	.
=121	=121	=121	=121	=121
*^	*	*	*	*
(8c/L	4F\]	.	2.ee\tt	.	.
8d/)	.	.	.	.	.
8B'/	4D\	.	.	.	.
8A'/J	.	.	.	.	.
4G#X'/	4E\	.	.	.	.
*v	*v	*	*	*	*
!!LO:LB:g=original
=122	=122	=122	=122	=122
4EE/	.	2ee\tt	.	.
(4e 4G#X 4E\	.	.	.	.
4f 4A 4F\)	.	4dd#X\tt	.	.
=123	=123	=123	=123	=123
4EE/	.	2ddn\TT	.	.
(4f 4G#X 4F\	.	.	.	.
4f#X 4A 4F#X\)	.	4cc#X\tt	.	.
=124	=124	=124	=124	=124
4EE/	.	2ccn\TT	.	.
(4gn 4c 4Gn\	.	.	.	.
4g#X 4B 4G#X\)	.	4b\tt	.	.
=125	=125	=125	=125	=125
4EE/	.	2b-X\TT	.	.
(4g#X 4d 4G#X\	.	.	.	.
4gn 4c#X 4A\)	.	4a/t	.	[[
=126	=126	=126	=126	=126
4d 4A 4F\	.	(8a\L	.	f <
.	.	16bnX\L	.	.
.	.	16cc#X\JJ	.	.
4e^\	.	16dd\LL	.	.
.	.	16ee\	.	.
.	.	16ff\	.	.
.	.	16gg\JJ	.	.
4f^\	.	16aa\LL)	.	.
.	.	(16aa\	.	.
.	.	16bb\	.	.
.	.	16ccc#X\JJ	.	.
!!LO:LB:g=original
=127	=127	=127	=127	=127
*	*	*8va	*	*
4g^\	.	16ddd\LL	.	.
.	.	16eee\	.	.
.	.	16fff\	.	.
.	.	16ggg\JJ	.	.
8f^\L	.	16aaa\LL)	.	.
.	.	(16aaa\	.	.
8g^\J	.	16bbb\	.	.
.	.	16cccc#X\JJ	.	.
4e^\	.	16dddd\LL	.	.
.	.	.	.	[
.	.	16eeee\	.	.
.	.	16ffff\	.	.
.	.	16gggg\JJ	.	.
=128	=128	=128	=128	=128
4d#X 4A 4F^\	.	4aaaa\)	.	.
*	*	*X8va	*	*
4B^\	.	4r	.	.
[4cn^\	.	4r	.	.
=129	=129	=129	=129	=129
8c\]	.	8ryy	.	.
!LO:TX:b:i:t=staccato	!	!LO:TX:b:i:t=m.d.	!	!
8ryy	.	8d#X</L	.	.
2ryy	.	8c</	.	.
.	.	8B</J	.	.
.	.	[>4A</	.	.
=130	=130	=130	=130	=130
2.ryy	.	8A</L]	.	.
.	.	8B</	.	.
.	.	8G#X</	.	>
.	.	8F</	.	.
.	.	8E</	.	.
.	.	8F</J	.	.
!!LO:LB:g=original
=131	=131	=131	=131	=131
2.ryy	.	8E</L	.	.
!	!	!LO:TX:b:i:t=slentando	!	!
.	.	8F</	.	.
.	.	8D</	.	.
.	.	8C</J	.	.
.	.	4BB</	.	.
=132	=132	=132	=132	=132
*	*	*^	*	*
!!LO:TX:a:i:t=a tempo
(4AA\	.	4ryy	8rF<	.	p
!	!	!LO:TX:t=P:problem:mixed beam	!	!	!
.	.	.	(8E</L	.	.
4BB\	.	2e/	8d\	.	.
.	.	.	8c</	.	.
4C\	.	.	8B</	.	.
.	.	.	[8A</J	.	.
*	*	*v	*v	*	*
=133	=133	=133	=133	=133
*^	*	*	*	*
!	!	!	!LO:TX:t=P:problem:mixed beam	!	!
4D\	4ryy	.	8A</L]	.	.
.	.	.	8G#X</	.	.
8C\L	4ryy	.	8A</	.	.
8D\J	.	.	8B</	.	.
!	!	!	!LO:TX:t=P:problem:klamra	!	!
4BB\)	4G/	.	8c#X\	.	.
.	.	.	8d\J)	.	.
*v	*v	*	*	*	*
=134	=134	=134	=134	=134
*	*	*^	*	*
(4Cn\	.	4ryy	8rA<	.	.
!	!	!	!LO:TX:t=P:problem:mixed beam	!	!
.	.	.	(8A</L	.	.
4D\	.	2a/	8f\	.	.
!	!	!	!	!	!LO:HP:b=2
.	.	.	8e\	.	<
4E\	.	.	8d\	.	.
.	.	.	[8cn\J	.	.
=135	=135	=135	=135	=135	=135
4F\	.	4ryy	8c\L]	.	.
.	.	.	8B\	.	[
8E\L	.	4ryy	8c\	.	.
8F\J	.	.	8d\	.	.
4D\	.	4g#X/	8e\	.	.
.	.	.	8f\J)	.	.
!!LO:PB:g=original
=136	=136	=136	=136	=136	=136
4F\)	.	4ryy	8r	.	.
.	.	.	(<8a\L	.	.
[2f^\	.	2aa/	8ee\	.	.
.	.	.	8dd\	.	.
.	.	.	8cc#X\	.	.
!	!	!	!	!	!LO:HP:a
.	.	.	8ccn\J	.	>
=137	=137	=137	=137	=137	=137
(4f\]	.	(4dd/	8b\L	.	.
.	.	.	8a\J	.	.
8e\L	.	4b/	4g#X\	.	]
8d\J	.	.	.	.	.
4c\)	.	[4ee/	[4a\)	.	.
=138	=138	=138	=138	=138	=138
(4B\	.	8ee/L]	2.a\]	.	.
.	.	8ff/	.	.	.
4c\	.	8dd/	.	.	.
.	.	8cc/J	.	.	.
[4d\	.	[4b/	.	.	.
*	*	*v	*v	*	*
=139	=139	=139	=139	=139
8d\L]	.	4b] 4g#X/	.	.
8e\)	.	.	.	.
8c'\	.	4a 4e/)	.	.
8B'\	.	.	.	.
8A'\	.	4r	.	.
8Gn'\J	.	.	.	.
=140	=140	=140	=140	=140
(4.F\	.	4f 4c 4A'/	.	p
.	.	4g 4f 4B'/	.	.
8E\	.	.	.	.
[4D\)	.	([4a [>4f [4c/	.	.
!!LO:LB:g=original
=141	=141	=141	=141	=141
(>2D] 2GG/	.	8a]L 8f] 8c/]	.	.
.	.	8g 8f 8B'/)	.	.
.	.	8a 8f 8c'/	.	.
.	.	8bJ 8f 8d'/	.	.
4C 4CC/)	.	4cc 4g 4e/	.	.
=142	=142	=142	=142	=142
(4.B-X 4.BB-X\	.	4b-X 4f 4d'/	.	<
.	.	4cc 4b- 4e'/	.	.
8A 8AA\	.	.	.	.
[4G 4GG/)	.	([4dd [>4b- [4f/	.	[
=143	=143	=143	=143	=143
(<2G] 2C\	.	8dd]L 8b-] 8f/]	.	.
.	.	8cc 8b-X 8e'/)	.	.
.	.	8dd 8b- 8f'/	.	.
.	.	8eeJ 8b- 8g'/	.	.
4F 4FF/)	.	4ff 4cc 4a\	.	.
=144	=144	=144	=144	=144
!	!	!	!	!LO:DY:t=%s subito
4BBnX 4EE'<\	.	4e 4d 4G#X<'>/	.	p
2D 2DD~<\	.	2f 2d 2A<~>/	.	.
=145	=145	=145	=145	=145
4BB 4EE'<\	.	(>8eL 8d 8G#X</	.	.
.	.	8gn/J)	.	.
2D 2DD~<\	.	2f 2d 2A<~>/	.	.
=146	=146	=146	=146	=146
4BB 4EE\	.	(>8eL 8d 8G#X</	.	.
.	.	8gn/J)	.	.
4D 4DD\	.	4f 4d 4A</	.	.
4BB 4EE\	.	(>8eL 8d 8G#</	.	.
.	.	8g/J)	.	.
!!LO:LB:g=original
=147	=147	=147	=147	=147
4D 4DD\	.	8fL 8A<'>/	.	.
.	.	8e'>/J	.	.
2C 2FF~<\	.	2e-X 2A<~>/	.	.
=148	=148	=148	=148	=148
4C 4FF#X'<\	.	4d 4A<'>/	.	.
2GG 2CC~<\	.	2e-X 2B-X<~>/	.	.
=149	=149	=149	=149	=149
4C 4FF#X'<\	.	(>8dL 8A</	.	.
.	.	8fn/J)	.	.
2GG 2CC~<\	.	2e-X 2B-X<~>/	.	.
=150	=150	=150	=150	=150
!	!	!	!	!LO:HP:a:t=poco cresc.
4C 4FF#X\	.	(>8dL 8A</	.	<
.	.	8f/J)	.	.
4GG 4CC\	.	4e-X 4B-X</	.	.
4C 4FF#\	.	(>8dL 8A</	.	.
.	.	8f/J)	.	.
=151	=151	=151	=151	=151
4GG 4CC\	.	8e-XL 8B-X<'>/	.	.
.	.	8d'>/J	.	.
2EE-X~<\	.	2c#X 2G<~>/	.	.
=152	=152	=152	=152	=152
4AA-X\	.	(>8cnL 8F#X</	.	.
.	.	8e-X/)	.	.
!	!	!	!	!LO:HP:a
4DD\	.	8d 8F#</	.	<
.	.	8c/	.	.
4GG\	.	8B 8Fn</	.	.
.	.	8d/J	.	[
!!LO:LB:g=original
=153	=153	=153	=153	=153
!	!	!	!	!LO:DY:a
4CC\	.	8c<L 8En</	.	>
.	.	8B-X</	.	.
4FF\	.	8A< 8D#X</	.	.
.	.	8c</J	.	.
4BBB\	.	8Bn<L 8D#</	.	.
.	.	8A</J	.	]
=154	=154	=154	=154	=154
2.EE^/tt	.	4r	.	p
*	*	*clefF4	*	*
.	.	4G#X 4E'\	.	.
!	!	!LO:TX:b:t=poco a poco cresc.-:ext=ud:problem:text with extention lines	!	!
.	.	.	.	<
.	.	4dn [4F^\	.	.
=155	=155	=155	=155	=155
*	*	*^	*	*
2.EE/tt	.	(8c/L	4F\]	.	.
.	.	8d/)	.	.	.
.	.	8B/	4D\	.	.
.	.	8A/J	.	.	.
.	.	(16G#XLL 16E\	4ryy	.	.
.	.	32F#X\L	.	.	.
.	.	32G#\	.	.	.
.	.	32A\	.	.	.
.	.	32B\	.	.	.
.	.	32c\	.	.	.
.	.	32d\JJJ	.	.	.
*	*	*v	*v	*	*
!!LO:LB:g=original
*	*	*clefG2	*	*
=156	=156	=156	=156	=156
2.EE/tt	.	8e/)	.	.
.	.	8r	.	.
.	.	4g#X 4e'>/	.	.
.	.	4dd [4fn^>/	.	.
=157	=157	=157	=157	=157
*	*	*^	*	*
2.EE/tt	.	(8cc/L	4f\]	.	.
.	.	8dd/)	.	.	.
.	.	8b/	4d\	.	.
.	.	8a/J	.	.	.
.	.	(16g#XLL 16e/	4ryy	.	.
.	.	32f#X/L	.	.	.
.	.	32g#/	.	.	.
.	.	32a/	.	.	.
.	.	32b/	.	.	.
.	.	32cc/	.	.	.
.	.	32dd/JJJ)	.	.	.
*	*	*v	*v	*	*
!!LO:LB:g=original
=158	=158	=158	=158	=158
4EE/	.	2ee\tt	.	.
(4e 4G#X 4E\	.	.	.	.
4f 4A 4F\)	.	4dd#X\tt	.	.
=159	=159	=159	=159	=159
4EE/	.	2ddn\TT	.	.
(4f 4G#X 4F\	.	.	.	.
4f#X 4A 4F#X\)	.	4cc#X\tt	.	.
=160	=160	=160	=160	=160
4EE/	.	2ccn\TT	.	.
(4gn 4c 4Gn\	.	.	.	.
4g#X 4B 4G#X\)	.	4b\tt	.	.
=161	=161	=161	=161	=161
4EE/	.	2b-X\TT	.	.
(4g#X 4d 4G#X\	.	.	.	.
4gn 4c#X 4A\)	.	4a/tt	.	[[
=162	=162	=162	=162	=162
4d 4A 4F\	.	(8a\L	.	f
.	.	16bnX\L	.	.
.	.	16cc#X\JJ	.	.
4e^\	.	16dd\LL	.	.
.	.	16ee\	.	.
.	.	16ff\	.	.
.	.	16gg\JJ	.	.
4f^\	.	16aa\LL)	.	.
.	.	(16aa\	.	.
.	.	16bb\	.	.
.	.	16ccc#X\JJ	.	.
!!LO:LB:g=original
=163	=163	=163	=163	=163
*	*	*8va	*	*
4g^\	.	16ddd\LL	.	.
.	.	16eee\	.	.
.	.	16fff\	.	.
.	.	16ggg\JJ	.	.
8f^\L	.	16aaa\LL)	.	.
.	.	(16aaa\	.	.
8g^\J	.	16bbb\	.	.
.	.	16cccc#X\JJ	.	.
4e^\	.	16dddd\LL	.	.
.	.	16eeee\	.	.
.	.	16ffff\	.	.
.	.	16gggg\JJ	.	.
=164	=164	=164	=164	=164
4d#X 4A 4F^\	.	4aaaa\)	.	.
*	*	*X8va	*	*
4B^\	.	4r	.	.
[4cn^\	.	4r	.	.
=165	=165	=165	=165	=165
8c\]	.	8r	.	.
!LO:TX:b:i:t=staccato	!	!LO:TX:b:i:t=m.d.	!	!
8ryy	.	8d#X</L	.	.
2ryy	.	8c</	.	.
.	.	8B</J	.	.
.	.	[>4A</	.	.
=166	=166	=166	=166	=166
2.ryy	.	8A</L]	.	.
!	!	!	!	!LO:DY:a
.	.	8B</	.	>
.	.	8G#X</	.	.
.	.	8F</	.	.
.	.	8E</	.	.
.	.	8F</J	.	.
=167	=167	=167	=167	=167
2.ryy	.	8E</L	.	.
!	!	!LO:TX:b:i:t=slentando	!	!
.	.	8F</	.	.
.	.	8D</	.	]
.	.	8C</J	.	.
.	.	4BB</	.	.
!!LO:PB:g=original
=168	=168	=168	=168	=168
*	*	*^	*	*
*	*	*	*tuplet	*	*
!!LO:TX:a:i:t=a tempo
(<4AA\	.	4ryy	12rF<	.	p
.	.	.	(12D#X</L	.	<
.	.	.	12E</J	.	[[
!	!	!	!LO:TX:t=P:problem:mixed beam	!	!
4BB\	.	2e^/	8dn\L	.	.
.	.	.	8c</	.	.
4C\	.	.	8B</	.	.
.	.	.	[8A</J	.	.
*	*	*v	*v	*	*
=169	=169	=169	=169	=169
*^	*	*	*	*
!	!	!	!LO:TX:t=P:problem:mixed beam	!	!
4Dn\	4ryy	.	8A</L]	.	.
.	.	.	8G#X</	.	.
8C\L	4ryy	.	8A</	.	.
8D\J	.	.	8B</	.	.
!	!	!	!LO:TX:t=P:problem:klamra	!	!
4BB\)	4G/	.	8c#X\	.	.
.	.	.	8d\J)	.	.
*v	*v	*	*	*	*
=170	=170	=170	=170	=170
*	*	*^	*	*
(4C\	.	4ryy	12rA<	.	.
.	.	.	(12G#X</L	.	<
.	.	.	12A</J	.	[[
4D\	.	2a^/	8f\L	.	<
.	.	.	8e\	.	.
4E\	.	.	8d\	.	.
.	.	.	[8cn\J	.	.
=171	=171	=171	=171	=171	=171
4F\	.	8ryy	8c\L]	.	.
.	.	8ryy	8B\	.	.
8E\L	.	8ryy	8c\	.	.
8F\J	.	8ryy	8d\	.	.
4D\)	.	4g#X/	8e\	.	.
.	.	.	8f\J)	.	.
=172	=172	=172	=172	=172	=172
4F\	.	4ryy	12r	.	f
.	.	.	(<12g#X/L	.	.
.	.	.	12a/J	.	.
*	*	*	*Xtuplet	*	*
[2f^<\	.	2aa^/	12ee\L	.	.
.	.	.	12ee-X\	.	.
.	.	.	12dd\J	.	.
.	.	.	12cc#X\L	.	.
.	.	.	12ccn\	.	.
.	.	.	12b\J	.	.
!!LO:LB:g=original
=173	=173	=173	=173	=173	=173
(4f\]	.	4dd/	8b-X\L	.	.
.	.	.	8a\J	.	.
8e\L	.	4bn 4g#X/	2ryy	.	>
8d\J	.	.	.	.	.
4c\)	.	[4ee [4a\)	.	.	.
=174	=174	=174	=174	=174	=174
(4B\	.	(8ee/L]	2.a\]	.	.
.	.	8ff/)	.	.	.
4c\	.	8dd/	.	.	>
.	.	8cc/J	.	.	.
[4d\	.	[4b/	.	.	.
*	*	*v	*v	*	*
=175	=175	=175	=175	=175
8d\L]	.	4b] 4g#X/	.	.
8e\)	.	.	.	.
8c\	.	[2a/	.	.
.	.	.	.	]
8B\J	.	.	.	.
[4A\	.	.	.	.
=176	=176	=176	=176	=176
!	!	!LO:TX:b:i:t=espress.	!	!
(8A\L]	.	(8a/L]	.	.
8B-X\J	.	8b-X/J	.	.
4G'\)	.	4g'/)	.	.
([4F\	.	([4f/	.	.
=177	=177	=177	=177	=177
8F\L]	.	8f/L]	.	.
8G\)	.	8g/)	.	.
8E'\	.	8e'/	.	.
8D'\J	.	8d'/J	.	.
([4C#X/	.	([4c#X/	.	.
!!LO:LB:g=original
=178	=178	=178	=178	=178
8C#X/L]	.	8c#X/L]	.	.
8D/J	.	8d/J	.	.
*	*	*clefF4	*	*
4BB-X'/)	.	4B-X'\)	.	.
([4AA/	.	([4A\	.	.
=179	=179	=179	=179	=179
8AA/L]	.	8A\L]	.	>
8BB-X/)	.	8B-X\)	.	.
!!LO:TX:a:i:t=poco calando
8GG/	.	8G\	.	.
8FF/J	.	8F\J	.	]
[4EE/	.	[4E\	.	.
=180	=180	=180	=180	=180
2.EE/_	.	2.E\]	.	.
=181	=181	=181	=181	=181
2.EE/]	.	2.G#X [2.D\	.	p
=182	=182	=182	=182	=182
*	*	*^	*	*
!!LO:TX:a:i:t=a tempo
[2.FF/	.	[2.A/	(8D\L]	.	.
.	.	.	8C\J	.	.
.	.	.	4.D\	.	.
.	.	.	8C\	.	.
=183	=183	=183	=183	=183	=183
2.FF/_	.	2.A/_	8D\L	.	.
.	.	.	8C\J	.	.
.	.	.	4.D\	.	.
.	.	.	8C\	.	.
!!LO:LB:g=original
=184	=184	=184	=184	=184	=184
2.FF/_	.	4A/]	8D\L	.	.
.	.	.	8C\	.	.
.	.	4rc	8D\	.	.
.	.	.	8F\	.	.
.	.	4rc	8E\	.	.
.	.	.	8F\J	.	.
*	*	*v	*v	*	*
=185	=185	=185	=185	=185
(4FF/]	.	8A\L	.	.
.	.	8G\	.	.
!	!	!	!	!LO:HP:t=poco cresc.
4EE/	.	8A\	.	<
.	.	8c\	.	.
4EE-X/	.	8B-X\	.	.
.	.	8c\J	.	.
*	*	*clefG2	*	*
=186	=186	=186	=186	=186
2DD/	.	8d/L	.	.
.	.	8c/	.	.
.	.	8d/	.	.
.	.	8f/	.	.
[4DD-X/	.	8e/	.	.
.	.	8f/J	.	.
=187	=187	=187	=187	=187
4DD-/]	.	8a/L	.	.
.	.	8g/	.	.
!!LO:TX:a:i:t=calando e dim.
4CC/	.	8b-X/	.	.
.	.	8a/	.	.
[4BBBn/	.	8g/	.	.
.	.	8f/J	.	.
=188	=188	=188	=188	=188
4BBB/]	.	8e/L	.	.
.	.	8d/	.	.
4BBB-X/	.	8f/	.	.
.	.	8e/	.	.
4AAA/	.	8d/	.	.
.	.	8c/J)	.	.
!!LO:LB:g=original
=189||	=189||	=189||	=189||	=189||
*k[b-]	*	*k[b-]	*	*
*	*	*^	*	*
!!LO:TX:a:B:t=Tempo I.
!	!	!	!	!	!LO:DY:t=molto %s
4GGG/)	.	4b-~::/	(8d::\L	.	p
.	.	.	8c\J	.	.
4B-\	.	4b-'/	4d'\)	.	.
4C/	.	4b-'/	4e'\	.	.
=190	=190	=190	=190	=190	=190
(4FF/	.	(4.b-/	(8d\L	.	.
.	.	.	8c\J	.	.
4F\)	.	.	4d\	.	.
.	.	8a/L	.	.	.
4AA/	.	8g/	4c\)	.	.
.	.	8f/J)	.	.	.
=191	=191	=191	=191	=191	=191
(4GG/	.	4dd~/	(8e\L	.	.
.	.	.	8f\J	.	.
4B-\)	.	4dd'/	4d'\)	.	.
4BB-/	.	4dd'/	4e'\	.	.
=192	=192	=192	=192	=192	=192
(4AA/	.	(4.dd/	(8f\L	.	.
.	.	.	8e\J	.	.
4c\)	.	.	4f\	.	.
.	.	8cc/L	.	.	.
[4D\	.	8b-/	4f#X\)	.	.
.	.	8a/J)	.	.	.
=193	=193	=193	=193	=193	=193
(4D] 4GG/	.	(8g/L	8g\	.	.
.	.	8a/	8rc	.	.
4B-\)	.	8b-/	4d\	.	.
.	.	8g/	.	.	.
[>4AA/	.	8fn/	4c#X\	.	.
.	.	8e/J)	.	.	.
!!LO:LB:g=original
=194	=194	=194	=194	=194	=194
(4AA] 4DD/	.	(8f/L	2cn\	.	.
.	.	8g/	.	.	.
4F\)	.	8a/	.	.	.
.	.	8f/	.	.	.
4GG/	.	8e/	4Bn\	.	.
.	.	8d/J	.	.	.
=195	=195	=195	=195	=195	=195
4C 4CC/	.	8e/L	4B-X\	.	.
.	.	8f/	.	.	.
*	*	*	*	*above	*
4BB-/	.	8g/	4d\	1 3	.
.	.	8a/	.	.	<
4AA/	.	8b-/	4f\	1 3	.
.	.	8bn/J	.	.	.
*	*	*v	*v	*	*
=196	=196	=196	=196	=196
4GG/	.	8ccL 8b-X 8e/	1 2 3	.
.	.	8dd/	.	.
4FF/	.	8ee 8a 8e'>/)	.	.
.	.	.	.	[
.	.	8ff 8f'>/	.	.
4EE/	.	8gg 8dd 8g'>/	.	.
.	.	8aaJ 8a'>/	.	.
=197	=197	=197	=197	=197
!	!	!	!	!LO:DY:t=poco %s
(4GG 4GGG/	.	[[8bb-L 8dd 8b-\	.	f
.	.	8cc\J	.	.
4c 4B- 4C\)	.	4bb-]] 4dd 4b-\	.	.
4CC/	.	4bb- 4ee 4b-\	.	.
=198	=198	=198	=198	=198
*	*	*^	*	*
(4FF 4FFF/	.	(4.bb-/	8ddL 8b-\	.	.
.	.	.	8cc\J	.	.
4F\)	.	.	4dd\	.	.
.	.	8aaL 8a/	.	.	.
4AA/	.	8gg 8cc 8g/	4ryy	.	.
.	.	8ffJ 8f/)	.	.	.
!!LO:PB:g=original
=199	=199	=199	=199	=199	=199
*	*	*	*	*below	*
!	!	!LO:TX:t=P:problem:łuczek pod oznaczeniem palcowania	!	!	!
(4GG/	.	4ddd 4dd/	(8ee\L	11	.
.	.	.	8ff\J	.	.
4B- 4C\)	.	4ddd 4dd\)	2ryy	.	.
4BB-/	.	4ddd 4ee 4dd\	.	.	.
=200	=200	=200	=200	=200	=200
(4AA/	.	(4.ddd/	(8ffL 8dd\	.	.
.	.	.	8ee\J	.	.
4c 4F\)	.	.	4ff\)	.	.
.	.	8cccL 8cc/	.	.	.
[4D\	.	8bb- 8b-/	4ff#X\	.	.
.	.	8aaJ 8a/	.	.	.
=201	=201	=201	=201	=201	=201
4B-: 4D:] 4GG:\	.	4gg 4dd 4b-/)	(8g\L	.	.
.	.	.	8a\	.	.
4r	.	4r	8b-\	.	.
.	.	.	8g\	.	.
[4A 4AA\	.	(4cc#X/	8fn\	.	.
.	.	.	8e\J)	.	.
=202	=202	=202	=202	=202	=202
4A] 4D\	.	4dd/)	(8f\L	.	.
!	!	!	!	!	!LO:HP:a
.	.	.	8g\	.	>
4r	.	4r	8a\	.	.
.	.	.	8f\	.	.
(<4G 4GG/	.	4bn 4g/	8e\	.	]
.	.	.	8d\J)	.	.
=203	=203	=203	=203	=203	=203
!	!	!LO:TX:t=P:problem:mixed beam	!	!	!
4A 4C\)	.	(>8c</L	4ryy	.	p
.	.	8d\	.	.	.
4r	.	8e\	4ryy	.	.
.	.	8f\J	.	.	.
(4Bn [4C^\	.	8g/L	(4d\	.	.
.	.	8a/J	.	.	.
!!LO:LB:g=original
=204	=204	=204	=204	=204	=204
4c 4A 4C\])	.	8f/L	4f\)	.	.
!	!	!LO:TX:b:i:t=poco-a-poco-cresc.:ext=s:problem:text with extention lines	!	!	!
.	.	8g/	.	.	<
4r	.	8a/	4r	.	.
.	.	8b-X/	.	.	.
[4d 4F#X [4C\	.	8cc/	[4a\	.	.
.	.	8dd/J	.	.	.
=205	=205	=205	=205	=205	=205
4d] 4G 4C\]	.	8b-/L	4a\]	.	.
.	.	8cc/	.	.	.
(4B-\	.	8dd/	4g\	.	.
.	.	8ee/	.	.	[
4Bn\	.	8ffn/	8dd\L	.	.
.	.	8gg/J)	8g\J	.	.
*	*	*v	*v	*	*
=206	=206	=206	=206	=206
4c\	.	(8eeL 8cc\	.	.
.	.	8ff 8f\)	.	.
4A\	.	8gg 8g\	.	.
.	.	8aa 8a\	.	.
4e-X [>4F\	.	8bb-X 8b-X\	.	.
.	.	8cccJ 8cc\	.	.
=207	=207	=207	=207	=207
4d 4F] 4BB-\)	.	8dddL 8dd\	.	.
.	.	8eeenJ 8een\	.	.
4r	.	4fff 4ff'\	.	.
4AA'/	.	4d 4c'/	.	>
=208	=208	=208	=208	=208
*^	*	*^	*	*
(8B-/L	4GG\	.	(8g/L	[4d\	.	.
8A/	.	.	8a/	.	.	.
8G/J)	4rEE	.	8b-/J)	8d\]	.	.
8rA	.	.	8r	8ryy	.	.
4C'/	4ryy	.	4e 4B-'/	4ryy	.	p
*	*	*	*v	*v	*	*
=209	=209	=209	=209	=209	=209
!	!	!	!LO:TX:b:i:t=espressivo	!	!
N(8D/L	[2.FF\	.	[2.f [2.A/	.	.
8C/J	.	.	.	.	.
4.D/	.	.	.	.	.
8C/	.	.	.	.	.
!!LO:LB:g=original
=210	=210	=210	=210	=210	=210
8D/L	2.FF\_	.	2.f_ 2.A/_	.	.
8C/J	.	.	.	.	.
4.D/	.	.	.	.	.
8C/	.	.	.	.	.
=211	=211	=211	=211	=211	=211
8D/L	4FF\]	.	4f] 4A/]	.	.
8C/	.	.	.	.	.
!	!	!	!	!	!LO:HP:t=poco cresc.
8D/	4rEE	.	4r	.	<
8F/	.	.	.	.	.
8E/	4rEE	.	4r	.	.
8F/J	.	.	.	.	.
*v	*v	*	*	*	*
=212	=212	=212	=212	=212
!LO:TX:t=P:problem:mixed beam	!	!	!	!
8A/L	.	2.ryy	.	.
8G/	.	.	.	.
8A/	.	.	.	.
8c>\	.	.	.	.
8B->\	.	.	.	.
8c>\J	.	.	.	.
=213	=213	=213	=213	=213
2.r	.	8d/L	.	.
.	.	8c/	.	.
.	.	8d/	.	.
.	.	8f/	.	.
.	.	8e/	.	.
.	.	8f/J	.	.
=214	=214	=214	=214	=214
!!LO:TX:a:i:t=poco rit.
2.r	.	8a\L	.	>
.	.	8g\	.	.
.	.	8a\	.	.
.	.	8cc\	.	.
.	.	8b-\	.	.
.	.	8cc\J	.	.
.	.	.	.	]
=215	=215	=215	=215	=215
2.r	.	2.ff~~~\	.	.
!!LO:LB:g=original
=216	=216	=216	=216	=216
2.r	.	2.f~/N)	.	.
=217	=217	=217	=217	=217
*^	*	*	*	*
!!LO:TX:a:i:t=a tempo
!	!	!	!	!	!LO:DY:b=2:t=%s espressivo
4g-~/	2.c 2.A-X\	.	8r	.	p
*	*	*	*	*above	*
.	.	.	(8a-X\L	2	.
4g-~/	.	.	8b-\	.	.
.	.	.	8cc 8a-\	.	.
4g-~/	.	.	8dd-X 8b-\	3	.
.	.	.	8ee-XJ 8cc\)	.	.
=218	=218	=218	=218	=218	=218
(4.g-::/	8D-X::\	.	8r	.	.
.	8rBB	.	(8ee-XL 8dd-X\	2 3	.
.	4rBB	.	8aa-X 8cc\	1 5	.
8f/L	.	.	8bb- 8dd-\	1 4	.
8e-X/	4rBB	.	8ccc 8ee-\	2 5	.
!LO:S:s=1:note:problem=note-level slur	!	!	!	!	!
&(8d-X/J)	.	.	8ddd-XJ 8ff\)	1 4	.
=219	=219	=219	=219	=219	=219
!	!LO:S:s=1:note:problem=note-level slur	!	!LO:TX:a:t=poco-a-poco-cresc.:ext=s:problem:text with extention lines	!	!LO:HP:a
4an~/	4c#X&) 4F#X\	.	8r	.	<
.	.	.	(8bn\L	.	.
4a~/	4rBB	.	8cc#X\	.	.
.	.	.	8dd#X 8b\	.	.
4a~/	4Bn\	.	8een 8cc#\	.	.
.	.	.	8ff#XJ 8dd#\)	.	[[
=220	=220	=220	=220	=220	=220
(4.a/	4E\	.	8r	.	.
.	.	.	(8ff#XL 8ee\	1 3	.
.	4rBB	.	8bbn 8dd#X\	2 5	.
8g#X/L	.	.	8ccc#X 8ee\	1 3	.
8f#X/	4rBB	.	8ddd#X 8ff#X\	1 4	.
8e/J)	.	.	8eeeJ 8gg#X\)	2 5	.
*v	*v	*	*	*	*
!!LO:LB:g=original
=221	=221	=221	=221	=221
(8DD/L	.	4fffn: 4aa: 4ffn~:\	.	.
8E/	.	.	.	.
*	*above	*	*	*
8Fn 8D/	4 2	4fff 4aa 4ff~\	.	.
8Gn 8E/	3 1	.	.	.
8A 8F/	4 2	4fff 4aa 4ff~\	.	.
8BnJ 8G/)	3 1	.	.	.
=222	=222	=222	=222	=222
*^	*^	*	*	*
(8c/L	8C\	1	.	(4.fff 4.gg 4.ff\	.	.
8d/	8rBB	2	.	.	.	.
8e/	4B-X\	1	4	.	.	.
8f/	.	2	.	8eeeL 8ee\	.	.
8g/	4A\	1	5	8ddd 8dd\	.	.
8a/J)	.	2	.	8cccJ 8cc\)	.	.
*	*	*v	*v	*	*	*
=223	=223	=223	=223	=223	=223
4b-/	4G\	.	8r	.	.
.	.	.	(8cc\L	1	.
4b-/	4rBB	.	8dd\	.	.
.	.	.	8ee 8cc\	1 3	.
4b-/	4c\	.	8ff 8dd\	2 4	.
.	.	.	8ggJ 8ee\	3 5	.
=224	=224	=224	=224	=224	=224
(4.b-/	4F\	.	8aaL 8ff\	2 4	.
.	.	.	8bb- 8gg\	1 3	.
.	4rBB	.	8ccc 8aa\	2 4	.
8a/L	.	.	8ddd 8bb-\	3 5	.
8g/	4rBB	.	8eee 8ccc\	2 4	.
8f/J)	.	.	8fffJ 8aa\)	1 5	.
*v	*v	*	*	*	*
=225	=225	=225	=225	=225
4.g 4.G~\	.	8r	.	.
!	!	!	!	!LO:HP:t=sempre più cresc.
.	.	(8eeL 8dd\	1 3	<
.	.	8aa 8cc#X\	2 5	.
8fL 8F\	.	8bbn 8dd\	1 3	.
8e 8E\	.	8ccc#X 8gg\	2 4	.
8dJ 8D\	.	8dddJ 8ff\)	1 5	.
!!LO:LB:g=original
=226	=226	=226	=226	=226
4.e-X 4.E-X\	.	8r	.	.
.	.	(8ccnL 8b-X\	2 3	.
.	.	8ff 8a\	1 5	.
8dL 8D\	.	8gg 8b-\	1 4	.
8c 8C\	.	8aa 8ee-X\	2 5	.
8B-J 8BB-\	.	8bb-J 8dd\)	1 4	.
=227	=227	=227	=227	=227
(8BBB-/L	.	(8aaL 8ee-X\	2 4	.
8FF/	.	8bb- 8dd\	1 5	.
8BB-/)	.	8aa 8ee-\	.	.
(8BB-/	.	8bb- 8dd\	.	.
8F/	.	8aa 8ee-\	.	.
8B-/J)	.	8bb-J 8dd\)	.	.
*clefG2	*	*	*	*
=228	=228	=228	=228	=228
(8B-/L	.	(8aaL 8ee-X\	.	.
8f/	.	8bb- 8dd\	.	.
8b-/)	.	8ccc#X 8aa\	1 3	.
(8b-/	.	8ddd 8bb-\	2 4	.
8ff/	.	8eeen 8ccc#\	1 3	.
8bb-/J)	.	8fffJ 8ddd\)	2 4	.
*clefF4	*	*	*	*
=229	=229	=229	=229	=229
(8EEnX\L	.	(8ggg#XL 8fff 8gg#X\	1 4 5	f
8BBn\	.	8eee\	3	.
8E\	.	8fff 8ddd\	2 4	.
8G#X\	.	8eee\	.	.
8Bn\	.	8ddd\	.	.
8e\J	.	8ccc#X\J	1	.
=230	=230	=230	=230	=230
8bn 8g#X\)	.	8dddL 8bbn\	2 4	.
8r	.	8aa\	1	.
4r	.	8bb 8gg#X\	2 4	.
.	.	8ff\	.	.
4r	.	8gg# 8ee\	.	.
.	.	8dd\J)	.	.
!!LO:PB:g=original
=231	=231	=231	=231	=231
(8AAA/L	.	(8eeL 8cc#X\	2 4	.
8EE/	.	8b-X\	1	.
8AA/	.	8cc# 8a\	2 4	.
8C#X/	.	8b-\	.	.
8E/	.	8a\	.	.
8A/J	.	8g\J	.	.
=232	=232	=232	=232	=232
8e 8c#X\)	.	8b-L 8g/	2 4	.
8r	.	8f/	.	.
2r	.	8g 8e/	.	.
.	.	8d/	.	.
.	.	8e 8c#X/	.	.
.	.	8B-/J)	.	.
*	*	*clefF4	*	*
=233	=233	=233	=233	=233
*	*	*^	*	*
2.r	.	2c#X/	(8A\L	.	.
.	.	.	8B-\	.	.
.	.	.	8A\	.	.
.	.	.	8G\	.	.
.	.	4A/	8F\	.	.
.	.	.	8E\J)	.	.
=234	=234	=234	=234	=234	=234
2.r	.	2c#X/	(8A\L	.	.
.	.	.	8B-\	.	.
.	.	.	8A\	.	.
.	.	.	8G\	.	.
.	.	4A/	8F\	.	.
.	.	.	8E\J)	.	.
!!LO:LB:g=original
=235	=235	=235	=235	=235	=235
2.r	.	2c#X/	(8A\L	.	.
.	.	.	8B-\	.	.
.	.	.	8A\	.	.
.	.	.	8G\	.	.
.	.	4A/	8F\	.	.
.	.	.	8E\J)	.	.
=236	=236	=236	=236	=236	=236
2.r	.	2.A/	(8F\L	.	.
.	.	.	8E\	.	.
.	.	.	8F\	.	.
.	.	.	8E\	.	.
.	.	.	8F\	.	.
.	.	.	8E\J)	.	.
=237	=237	=237	=237	=237	=237
!	!	!	!	!	!LO:HP:t=dim.molto
2.r	.	2.A/	(8F\L	.	>
.	.	.	8E\	.	.
.	.	.	8F\	.	.
.	.	.	8E\	.	.
.	.	.	8F\	.	.
.	.	.	8E\J)	.	.
=238	=238	=238	=238	=238	=238
2.r	.	2.A/	(8F\L	.	.
.	.	.	8E\	.	.
.	.	.	8F\	.	.
.	.	.	8E\	.	.
.	.	.	8F\	.	.
.	.	.	8E\J)	.	.
!!LO:LB:g=original
=239	=239	=239	=239	=239	=239
*	*	*	*tuplet	*	*
2.r	.	2A/	(12F\L	.	.
.	.	.	12E-X\	.	.
.	.	.	12F\J	.	.
.	.	.	12E-\L	.	.
.	.	.	12F\	.	<
.	.	.	12E-\J	.	.
.	.	[4A/	12F\L	.	.
.	.	.	12E-\	.	.
.	.	.	12F\J	.	.
=240	=240	=240	=240	=240	=240
2.r	.	4A/]	12E-X\L	.	.
.	.	.	12F\	.	.
.	.	.	12E-\J	.	[[
.	.	2A/	12F\L	.	.
.	.	.	12E-\	.	.
.	.	.	12F\J	.	.
.	.	.	12E-\L	.	.
.	.	.	12F\	.	.
.	.	.	12E-\J	.	.
*	*	*v	*v	*	*
=241	=241	=241	=241	=241
*	*	*Xtuplet	*	*
2.r	.	12F#XL 12D^\	.	.
.	.	12C\	.	.
.	.	12D\J	.	.
.	.	12En\L	.	.
.	.	12D\	.	.
.	.	12E\J	.	.
.	.	12F#\L	.	.
.	.	12E\	.	.
.	.	12F#\J	.	.
!!LO:LB:g=original
=242	=242	=242	=242	=242
2.r	.	12G\L	.	.
.	.	12F#X\	.	.
.	.	12G\J	.	.
.	.	12A\L	.	.
.	.	12G\	.	.
.	.	12A\J	.	.
.	.	12B-\L	.	.
.	.	12A\	.	.
.	.	12B-\J	.	.
*	*	*clefG2	*	*
=243	=243	=243	=243	=243
2.r	.	12c/L	.	.
.	.	12B-/	.	.
!	!	!	!	!LO:HP:a
.	.	12c/J	.	>
.	.	12d/L	.	.
.	.	12c/	.	.
.	.	12d/J	.	.
.	.	12e/L	.	.
.	.	12d/	.	.
.	.	12e/J	.	]
=244	=244	=244	=244	=244
!!LO:TX:a:i:t=poco calando
2.r	.	12f#X/L	.	.
.	.	12e/	.	.
.	.	12f#/J	.	.
.	.	12g/L	.	.
.	.	12f#/	.	.
.	.	12g/J	.	.
.	.	12a/L	.	.
.	.	12g/	.	.
.	.	12a/J	.	.
!!LO:LB:g=original
=245	=245	=245	=245	=245
*^	*	*	*	*
!!LO:TX:a:i:t=a tempo
4B-::/	4GG::\	.	8b-/L)	.	p
.	.	.	8c'/	.	.
4B-/	4rEE	.	8c#X'/	.	.
.	.	.	8d'/J	.	.
4B-/	4C\	.	(4e/tt	.	.
.	.	.	16qqd/LL	.	.
.	.	.	16qqe/JJ	.	.
=246	=246	=246	=246	=246	=246
*	*	*	*tuplet	*	*
(4.B-/	4FF\	.	12f/L	.	.
.	.	.	12e/	.	.
.	.	.	12f/J	.	.
.	4rCC	.	12g/L	.	.
.	.	.	12f/	.	.
8A/L	.	.	.	.	.
.	.	.	12g/J	.	.
8G/	4rCC	.	4a/)	.	.
[8F/J)	.	.	.	.	.
=247	=247	=247	=247	=247	=247
4d::/	4F::] 4BB-::\	.	8r	.	.
!	!	!	!LO:TX:b:i:t=poco cresc.	!	!
.	.	.	8e'/L	.	.
4d/	4rBB	.	8f'/	.	.
.	.	.	8g'/J	.	.
4d/	4E\	.	(4g#X/tt	.	.
.	.	.	16qqf#X/LL	.	.
.	.	.	16qqg#/JJ	.	.
=248	=248	=248	=248	=248	=248
(4.d/	4AA\	.	12a/L	.	.
.	.	.	12g#X/	.	.
.	.	.	12a/J	.	.
.	4rGG	.	12b-/L	.	.
.	.	.	12a/	.	.
8c/L	.	.	.	.	.
.	.	.	12b-/J	.	.
!	!	!	!LO:TUP:a	!	!
8B-/	4rGG	.	12cc\L	.	.
.	.	.	12b-\	.	.
8A/J	.	.	.	.	.
.	.	.	12cc\J	.	.
!!LO:LB:g=original
=249	=249	=249	=249	=249	=249
8G/L	4BB-\	.	4dd\	.	.
8A/	.	.	.	.	.
8B-/	4rGG	.	4d/	.	.
8G/	.	.	.	.	.
8F/	4AA\	.	4c#X/tt	.	.
8E/J	.	.	.	.	.
.	.	.	16qqBn/LL	.	.
.	.	.	16qqc#/JJ	.	.
=250	=250	=250	=250	=250	=250
*	*	*	*^	*	*
!LO:TX:t=P:problem:mixed beam	!	!	!	!	!	!
8F/L	4D\	.	4d/	2ryy	.	.
!	!	!	!	!	!	!LO:HP:a
8G/	.	.	.	.	.	>
8A>\	4rGG	.	4A/	.	.	.
8F/	.	.	.	.	.	.
8E/	4GG\	.	4g/	4Bn\tt	.	]
8D/J	.	.	.	.	.	.
.	.	.	.	16qqA\LL	.	.
.	.	.	.	16qqB\JJ	.	.
*v	*v	*	*	*	*	*
=251	=251	=251	=251	=251	=251
4C/)	.	8e/L	4B-X\	.	.
.	.	8f/	.	.	.
*	*below	*	*	*	*
(12BB-/L	2	8g/	4d\	.	.
12C/	.	.	.	.	.
.	.	8a/	.	.	<
12BB-/J	.	.	.	.	.
12AA/L	.	8b-/	4f\	.	.
12BB-/	.	.	.	.	.
.	.	8bn/J	.	.	.
12AA/J	1	.	.	.	.
*	*	*v	*v	*	*
=252	=252	=252	=252	=252
12GG/L	2	8ccL 8b-X 8e/	.	.
12AA/	.	.	.	.
.	.	8dd/	.	.
12GG/J	.	.	.	.
12FF/L	3	8ee 8a 8e/)	.	.
12GG/	.	.	.	.
.	.	8ff 8f/	.	.
12FF/J	.	.	.	.
12EE/L	4	8gg 8dd 8g/	.	.
12FF/	.	.	.	.
.	.	8aaJ 8a/	.	[[
12FF#X/J)	.	.	.	.
!!LO:PB:g=original
=253	=253	=253	=253	=253
4GG 4GGG/	.	(<8bb-L 8dd 8b-\	.	f
.	.	8cc\J	.	.
4c 4B- 4C\	.	4bb- 4dd 4b-\)	.	.
4C 4CC/	.	4bb- 4ee 4b-\	.	.
=254	=254	=254	=254	=254
*	*	*^	*	*
4FF 4FFF/	.	(4.bb-/	(8ddL 8b-\	.	.
.	.	.	8cc\J	.	.
4c 4A 4C\	.	.	4dd\)	.	.
.	.	8aaL 8a/	.	.	.
4AA 4AAA/	.	8gg 8g/	4cc\	.	.
.	.	8ffJ 8f/)	.	.	.
*	*	*v	*v	*	*
=255	=255	=255	=255	=255
4GG 4GGG/	.	(<8dddL 8ee 8dd\	.	.
.	.	8ff\J	.	.
4c 4B- 4C\	.	4ddd 4dd\)	.	.
4BB- 4BBB-/	.	4ddd 4ee 4dd\	.	.
=256	=256	=256	=256	=256
*	*	*^	*	*
4AA 4AAA/	.	(4.ddd 4.dd/	(8ff\L	.	.
.	.	.	8ee\J	.	.
4f 4c 4F\	.	.	4ff\)	.	.
.	.	8cccL 8cc/	.	.	.
4D 4DD/	.	8bb- 8b-/	4ff#X\	.	.
.	.	8aaJ 8a/)	.	.	.
!!LO:LB:g=original
=257	=257	=257	=257	=257	=257
8GG 8GGG/	.	(8ggL 8dd 8b- 8g\	2ryy	.	.
8r	.	8aaJ 8a\	.	.	.
(8dL 8B- 8G\	.	8bb- 8b-\)	.	.	.
8g\J	.	8r	.	.	.
8c#X 8A\)	.	(8ffL 8a 8f/	4cc#X\	.	.
8r	.	8eeJ 8e/)	.	.	.
=258	=258	=258	=258	=258	=258
8D 8DD/	.	(8ffL 8dd 8a 8f\	2ryy	.	.
8r	.	8ggJ 8g\	.	.	.
(8dL 8A 8F\	.	8aa 8a\)	.	.	.
8f\J	.	8r	.	.	.
8Bn 8G\)	.	(8eeL 8g 8e/	4bn\	.	.
8r	.	8ddJ 8d/)	.	.	.
*	*	*v	*v	*	*
=259	=259	=259	=259	=259
8c 8A 8C\	.	8r	.	.
8r	.	8dd 8d/	.	.
8e>L 8c 8A\	.	4r	.	.
8f>\J	.	.	.	.
4d 4Bn\	.	8ggL 8g/	.	.
.	.	8aaJ 8a/	.	.
=260	=260	=260	=260	=260
4f> 4c 4A\	.	8r	.	.
.	.	8ggL 8g/	.	.
4C/	.	8aa 8a/	.	.
.	.	8bb-XJ 8b-X/	.	.
4cc> 4a> 4f#X> 4c>\	.	8r	.	.
.	.	8ddd 8dd/	.	.
!!LO:LB:g=original
=261	=261	=261	=261	=261
4b-> 4g> 4d> 4B->\	.	8raa	.	.
.	.	8cccL 8cc/	.	.
4C/	.	8ddd 8dd/	.	.
.	.	8eee 8ee/	.	.
4bn> 4g> 4d> 4Bn>\	.	8fff 8ff/	.	<
.	.	8gggJ 8gg/	.	[[
=262	=262	=262	=262	=262
(4ee> 4a> 4c>\	.	8r	.	.
.	.	8fffL 8ff/	.	.
4ee-X> 4f>\)	.	8ggg 8gg/	.	.
.	.	8aaa 8aa/	.	.
*	*	*8va	*	*
[4F\	.	8bbb- 8bb-/	.	.
.	.	8ccccJ 8ccc/	.	.
=263	=263	=263	=263	=263
4d 4F] 4BB-\	.	8ddddL 8ddd\	.	.
.	.	8eeeenJ 8eeen\	.	.
4r	.	8ffff 8fff\	.	.
*	*	*X8va	*	*
.	.	8r	.	.
4AA'/	.	4d 4c'/	.	.
=264	=264	=264	=264	=264
*^	*	*^	*	*
(8B-:/L	8GG:\	.	(8g/L	[4d\	.	.
8A/J	8rGG	.	8a/J	.	.	.
8G/)	4rGG	.	8b-/)	8d\]	.	.
8rA	.	.	8r	8ryy	.	.
4C'/	4ryy	.	4e 4B-'/	4ryy	.	.
*	*	*	*v	*v	*	*
!!LO:LB:g=original
=265	=265	=265	=265	=265	=265
N(8D/L	[2.FF\	.	[2.f [2.A/	.	f
8C/J	.	.	.	.	.
4.D/	.	.	.	.	.
8C/	.	.	.	.	.
=266	=266	=266	=266	=266	=266
8D/L	2.FF\_	.	2.f_ 2.A/_	.	.
8C/J	.	.	.	.	.
!	!	!	!	!	!LO:HP:b=2
.	.	.	.	.	>
4.D/	.	.	.	.	.
8C/	.	.	.	.	]]
=267	=267	=267	=267	=267	=267
8D/L	4FF\]	.	4f] 4A/]	.	.
8C/	.	.	.	.	.
8D/	4rEE	.	4r	.	.
8F/	.	.	.	.	.
8E/	4rEE	.	4r	.	.
8F/J	.	.	.	.	.
*v	*v	*	*	*	*
=268	=268	=268	=268	=268
!LO:TX:t=P:problem:mixed beam	!	!	!	!
8A/L	.	2.ryy	.	.
8G/	.	.	.	.
8A/	.	.	.	.
!	!	!	!	!LO:HP:a=2
8c>\	.	.	.	>
8B->\	.	.	.	.
8c>\J	.	.	.	.
!!LO:LB:g=original
=269	=269	=269	=269	=269
2.r	.	8d/L	.	.
.	.	8c/	.	.
.	.	8d/	.	.
.	.	8f/	.	.
.	.	8e/	.	.
.	.	8f/J	.	.
=270	=270	=270	=270	=270
2.r	.	8a\L	.	.
.	.	8g\	.	.
.	.	8a\	.	.
.	.	8cc\	.	.
.	.	8b-\	.	.
.	.	8cc\JN)	.	.
=271	=271	=271	=271	=271
*^	*	*	*	*
!	!	!	!LO:TUP:a	!	!LO:DY:a:rj
2.a-X 2.F/	(>2c-X\	.	(12dd\L	.	p
.	.	.	12cc\	.	.
.	.	.	12dd\J	.	.
!	!	!	!LO:TUP:a	!	!
.	.	.	12ee-X\L	.	.
.	.	.	12dd\	.	.
.	.	.	12ee-\J	.	.
!	!	!	!LO:TUP:a	!	!
.	4B-\)	.	12ff\L	.	.
.	.	.	12ee-\	.	.
.	.	.	12ff\J	.	.
!!LO:LB:g=original
=272	=272	=272	=272	=272	=272
*	*	*	*Xtuplet	*	*
!	!	!	!	!	!LO:HP:a
2.g 2.B-/	(2E-X\	.	12gg\L	.	<
.	.	.	12ff\	.	.
.	.	.	12gg\J	.	.
.	.	.	12aa-X\L	.	.
.	.	.	12gg\	.	.
.	.	.	12aa-\J	.	.
.	4D-X\)	.	12bb-\L	.	.
.	.	.	12aa-\	.	.
.	.	.	12bb-\J	.	.
*v	*v	*	*	*	*
=273	=273	=273	=273	=273
*	*	*8va	*	*
2.f: 2.An: 2.C:\	.	16ccc\LL	.	.
.	.	16ddd\	.	.
.	.	16eee\	.	<
.	.	16fff\JJ	.	.
.	.	16ggg\LL	.	.
.	.	16aaa\	.	.
.	.	16bbb-\	.	.
.	.	16cccc\JJ	.	.
.	.	16dddd\LL	.	.
.	.	16eeee\	.	[[
.	.	16ffff\	.	.
.	.	16gggg\JJ	.	.
=274	=274	=274	=274	=274
4r	.	4aaaa\)	.	.
*	*	*X8va	*	*
4r	.	4r	.	.
4B- 4C'\	.	4cc 4g 4e'/	.	p
=275	=275	=275	=275	=275
*ped	*	*	*	*
4A 4C 4FF/	.	4ff 4cc 4f\	.	.
4r	.	4r	.	.
*Xped	*	*	*	*
4r	.	4r	.	.
==	==	==	==	==
*-	*-	*-	*-	*-
!!!system-decoration: {(g1)}
!!!RDF**kern: i = editorial accidental
!!!RDF**kern: > = above
!!!RDF**kern: < = below
!!!RDF**kern: N = linked
!!!RDF**dynam: > = "dim.", fontstyle= "italic"
!!!ENC: Anastazja Marusiak
!!!EED: Katarzyna Serwa
!!!END: 2023-10-20
!!!EEV: 2023-11-12
